logos/esdoc.svg

<?xml version="1.0" encoding="UTF-8"?>
<svg width="256px" height="256px" viewBox="0 0 256 256" version="1.1" xmlns="http://www.w3.org/2000/svg" xmlns:xlink="http://www.w3.org/1999/xlink" preserveAspectRatio="xMidYMid">
	<g>
		<ellipse fill="#E55151" cx="128" cy="128" rx="128" ry="128"></ellipse>
		<path d="M207.360933,129.859459 C207.924136,125.747443 208.222191,121.535443 208.222191,117.245607 C208.222191,95.5673476 200.627175,75.6843776 186.836924,61.2600486 C185.292861,59.645111 183.674759,58.1288921 182.011728,56.6759546 L182.011728,29.4004685 L158.845727,43.0185943 C149.702851,39.6729144 139.662015,37.935844 128.912428,37.935844 C117.928701,37.935844 107.741052,39.6381098 98.5361604,42.9224068 L74.525987,29.4004685 L74.525987,57.1214546 C73.0420416,58.4554234 71.5947993,59.8349548 70.2190649,61.3018142 C56.9249391,75.4793464 49.603298,95.346496 49.603298,117.245607 C49.603298,120.156544 49.7431496,123.029513 50.0007043,125.861349 C42.6157819,143.334569 48.8996104,181.262189 68.4351663,194.003237 C72.2206509,189.506471 75.0752683,184.561041 77.0047137,179.413743 C83.4923079,184.734431 90.8854568,188.861002 99.0512698,191.725744 L99.0512698,209.129987 C99.0512698,213.571066 102.65134,217.171136 107.093052,217.171136 L112.939607,217.171136 C115.769544,217.171136 118.865896,214.877191 118.865896,212.047886 L118.865896,227.063895 C118.865896,231.45245 122.423568,235.010122 126.81149,235.010122 L131.474053,235.010122 C135.862608,235.010122 139.42028,231.45245 139.42028,227.063895 L139.42028,212.047886 C139.42028,214.877191 142.516632,217.171136 145.345937,217.171136 L151.193125,217.171136 C155.634203,217.171136 159.234906,213.571066 159.234906,209.129987 L159.234906,191.493502 C166.608438,188.825564 173.360548,185.121713 179.379228,180.416751 C181.297283,185.203345 184.028502,189.79883 187.567189,194.003237 C205.721948,182.163314 212.428496,148.574257 207.360933,129.859459 Z M128.912428,190.62908 C107.973294,190.62908 91.1170662,184.066181 78.8563232,173.208384 C82.9411282,154.938453 75.6036668,135.36303 55.8181499,124.436888 C55.6295718,122.07017 55.5289546,119.672443 55.5289546,117.245607 C55.5289546,76.7164949 81.7678937,43.8615006 128.912428,43.8615006 C174.110431,43.8615006 202.295901,76.7164949 202.295901,117.245607 C202.295901,119.333255 202.206675,121.395591 202.064925,123.439576 C180.424634,134.360022 172.61636,155.208031 177.425736,174.372126 C165.255485,184.53383 148.893484,190.62908 128.912428,190.62908 Z M183.477523,99.3558032 C182.86053,72.3195202 144.219731,57.1351833 127.800777,90.4673182 C112.245612,57.5053787 72.7410235,71.702528 72,99.6026 C72.617625,122.318039 89.6542042,131.700118 118.788894,128.243696 L127.800777,138.984423 L136.936059,128.243696 C168.910178,129.971907 182.527671,122.761008 183.477523,99.3558032 Z" fill="#FFFFFF"></path>
	</g>
</svg>

<svg preserveAspectRatio="xMidYMid" viewBox="0 0 256 256" xmlns="http://www.w3.org/2000/svg">
  <circle cx="128" cy="128" r="128" fill="#E55151"/>
  <path fill="#FFF" d="M207.36 129.86c.564-4.113.862-8.325.862-12.614 0-21.679-7.595-41.562-21.385-55.986a74.09 74.09 0 0 0-4.825-4.584V29.4l-23.166 13.62c-9.143-3.346-19.184-5.083-29.934-5.083-10.983 0-21.17 1.702-30.376 4.986L74.526 29.4v27.721a70.369 70.369 0 0 0-4.307 4.18C56.925 75.48 49.603 95.347 49.603 117.247c0 2.91.14 5.784.398 8.615-7.385 17.474-1.101 55.401 18.434 68.142 3.786-4.497 6.64-9.442 8.57-14.59 6.487 5.321 13.88 9.448 22.046 12.313v17.404c0 4.441 3.6 8.041 8.042 8.041h5.847c2.83 0 5.926-2.294 5.926-5.123v15.016a7.946 7.946 0 0 0 7.945 7.946h4.663a7.946 7.946 0 0 0 7.946-7.946v-15.016c0 2.83 3.097 5.123 5.926 5.123h5.847c4.441 0 8.042-3.6 8.042-8.041v-17.636c7.373-2.668 14.126-6.372 20.144-11.077 1.918 4.786 4.65 9.382 8.188 13.586 18.155-11.84 24.861-45.429 19.794-64.144Zm-78.448 60.77c-20.939 0-37.795-6.564-50.056-17.422 4.085-18.27-3.252-37.845-23.038-48.771a90.506 90.506 0 0 1-.289-7.191c0-40.53 26.239-73.384 73.383-73.384 45.198 0 73.384 32.854 73.384 73.384 0 2.087-.09 4.15-.231 6.194-21.64 10.92-29.449 31.768-24.64 50.932-12.17 10.162-28.532 16.257-48.513 16.257Zm54.566-91.274c-.617-27.036-39.258-42.22-55.677-8.889C112.246 57.505 72.74 71.703 72 99.603c.618 22.715 17.654 32.097 46.789 28.64l9.012 10.741 9.135-10.74c31.974 1.728 45.592-5.483 46.542-28.888Z"/>
</svg>
